media/img/mob-icon-noun-moon.svg

<svg width="56" height="56" viewBox="0 0 56 56" fill="none" xmlns="http://www.w3.org/2000/svg">
<g clip-path="url(#clip0_623_4433)">
<path d="M27.9671 0.0761719C20.5029 0.0761719 13.4853 2.9824 8.20707 8.26063C2.92966 13.538 0.0226126 20.5548 0.0234377 28.019C0.0234377 35.4832 2.93049 42.5009 8.20954 47.7774C13.4861 53.0549 20.5038 55.9619 27.9671 55.9619C35.4297 55.9619 42.4473 53.0549 47.7247 47.7783C53.0038 42.4992 55.9108 35.4824 55.9108 28.0199C55.9108 20.5557 53.0038 13.5389 47.7247 8.26145C42.4481 2.9824 35.4311 0.0761719 27.9671 0.0761719ZM24.1416 44.1769C26.4041 46.4386 28.4013 48.7275 31.0602 49.9475C30.0418 50.0893 29.0137 50.1868 27.9671 50.1868C22.8921 50.1868 18.0868 48.482 14.179 45.363C13.5449 44.828 12.9237 44.2656 12.3218 43.6637C12.3145 43.6774 12.3113 43.6903 12.3057 43.7056C12.3009 43.7024 12.2968 43.6976 12.292 43.6944C8.10467 39.507 5.79805 33.9413 5.79805 28.0193C5.79805 22.0973 8.10323 16.5308 12.2897 12.3451C16.4779 8.15777 22.0444 5.85115 27.9664 5.85115C30.0226 5.85115 32.0312 6.14685 33.9594 6.68507C30.4828 7.87833 26.7619 10.2841 24.1403 12.9043C15.5055 21.5406 15.5055 35.5415 24.1419 44.1776L24.1416 44.1769Z" fill="white"/>
</g>
<defs>
<clipPath id="clip0_623_4433">
<rect width="56" height="56" fill="white"/>
</clipPath>
</defs>
</svg>

<svg width="56" height="56" viewBox="0 0 56 56" fill="none" xmlns="http://www.w3.org/2000/svg"><g clip-path="url(#clip0_623_4433)"><path d="M27.967.076c-7.464 0-14.482 2.906-19.76 8.185C2.93 13.538.023 20.555.023 28.019c0 7.464 2.907 14.482 8.187 19.758 5.276 5.278 12.294 8.185 19.757 8.185 7.463 0 14.48-2.907 19.758-8.184C53.004 42.5 55.91 35.482 55.91 28.02c0-7.464-2.907-14.481-8.186-19.759C42.448 2.982 35.43.076 27.967.076zm-3.825 44.1c2.262 2.263 4.26 4.551 6.918 5.771-1.018.142-2.046.24-3.093.24-5.075 0-9.88-1.705-13.788-4.824a29.723 29.723 0 01-1.857-1.7c-.007.014-.01.027-.016.043l-.014-.012A22.022 22.022 0 015.798 28.02a22.018 22.018 0 016.492-15.674 22.027 22.027 0 0115.676-6.494c2.057 0 4.065.296 5.993.834-3.476 1.193-7.197 3.6-9.819 6.22-8.635 8.636-8.635 22.636.002 31.273v-.001z" fill="#fff"/></g><defs><clipPath id="clip0_623_4433"><path fill="#fff" d="M0 0h56v56H0z"/></clipPath></defs></svg>
